src/assets/icons/save.svg

<svg widh="100%" height="100%" viewBox="0 0 24 24" fill="current"
  xmlns="http://www.w3.org/2000/svg">
  <path fill-rule="evenodd" clip-rule="evenodd" d="M5 3.75C4.66848 3.75 4.35054 3.88169 4.11613 4.11611L4.11611 4.11613C3.88169 4.35054 3.75 4.66848 3.75 5V19C3.75 19.3315 3.88168 19.6494 4.11613 19.8839L3.58633 20.4137L4.11614 19.8839C4.35054 20.1183 4.66847 20.25 5 20.25H19C19.3315 20.25 19.6494 20.1183 19.8839 19.8839C20.1183 19.6494 20.25 19.3315 20.25 19V8.31066L15.6893 3.75H5ZM3.05547 3.05545C3.57119 2.53972 4.27067 2.25 5 2.25H16C16.1989 2.25 16.3897 2.32902 16.5303 2.46967L21.5303 7.46967C21.671 7.61032 21.75 7.80109 21.75 8V19C21.75 19.7293 21.4603 20.4288 20.9445 20.9445C20.4288 21.4603 19.7293 21.75 19 21.75H5C4.27067 21.75 3.57118 21.4603 3.05544 20.9445C2.53973 20.4288 2.25 19.7293 2.25 19V5C2.25 4.27067 2.53972 3.57119 3.05545 3.05547C3.05546 3.05546 3.05546 3.05546 3.05547 3.05545Z"/>
  <path fill-rule="evenodd" clip-rule="evenodd" d="M6.25 13C6.25 12.5858 6.58579 12.25 7 12.25H17C17.4142 12.25 17.75 12.5858 17.75 13V21C17.75 21.4142 17.4142 21.75 17 21.75C16.5858 21.75 16.25 21.4142 16.25 21V13.75H7.75V21C7.75 21.4142 7.41421 21.75 7 21.75C6.58579 21.75 6.25 21.4142 6.25 21V13Z"/>
  <path fill-rule="evenodd" clip-rule="evenodd" d="M7 2.25C7.41421 2.25 7.75 2.58579 7.75 3V7.25H15C15.4142 7.25 15.75 7.58579 15.75 8C15.75 8.41421 15.4142 8.75 15 8.75H7C6.58579 8.75 6.25 8.41421 6.25 8V3C6.25 2.58579 6.58579 2.25 7 2.25Z"/>
</svg>

<svg xmlns="http://www.w3.org/2000/svg" fill="currentColor" viewBox="0 0 24 24">
  <path fill-rule="evenodd" d="M5 3.75A1.25 1.25 0 0 0 3.75 5v14c0 .331.132.65.366.884l-.53.53.53-.53c.235.234.552.366.884.366h14A1.25 1.25 0 0 0 20.25 19V8.31l-4.56-4.56H5Zm-1.945-.695A2.75 2.75 0 0 1 5 2.25h11a.75.75 0 0 1 .53.22l5 5c.141.14.22.331.22.53v11A2.75 2.75 0 0 1 19 21.75H5A2.75 2.75 0 0 1 2.25 19V5c0-.73.29-1.429.805-1.945Z" clip-rule="evenodd"/>
  <path fill-rule="evenodd" d="M6.25 13a.75.75 0 0 1 .75-.75h10a.75.75 0 0 1 .75.75v8a.75.75 0 0 1-1.5 0v-7.25h-8.5V21a.75.75 0 0 1-1.5 0v-8ZM7 2.25a.75.75 0 0 1 .75.75v4.25H15a.75.75 0 0 1 0 1.5H7A.75.75 0 0 1 6.25 8V3A.75.75 0 0 1 7 2.25Z" clip-rule="evenodd"/>
</svg>
